X: 156
T:Small Hills of Offaly
M:2/2
L:1/8
R:Reel
Z:Robert Greenway
K:D
d2Ad dBAF|~A2EA ceec|defe dBAF|E2GE BEGE|!
d2Ad dBAF|~A2EA ceec|defe dBAF|EAFE D4:|!
|:d2Ad faaf|efge cA~A2|d2Ad faaf|gfeg ~f3e|!
d2Ad faaf|efge cA~A2|(3Bcd ed cAAF|EAFE D4:|!
<end>
<start>
